assets/icons/uE01B-navigateright.svg

<svg xmlns="http://www.w3.org/2000/svg" width="896" height="1232" viewBox="0 0 896 1232"><path d="M448 952q-185 0-316.5-131.5T0 504t131.5-316.5T448 56t316.5 131.5T896 504 764.5 820.5 448 952zm0-840q-163 0-277.5 115T56 504q0 163 114.5 277.5T448 896q162 0 277-114.5T840 504q0-162-115-277T448 112zm-28 602V560H252V448h168V294l252 210z"/></svg>

<?xml version="1.0" encoding="UTF-8" standalone="no"?><svg   xmlns:svg="http://www.w3.org/2000/svg"   xmlns="http://www.w3.org/2000/svg"   version="1.1"   width="896"   height="1232"   viewBox="0 0 896 1232">  <path     d="M448 952Q263 952 131.5 820.5T0 504T131.5 187.5T448 56T764.5 187.5T896 504T764.5 820.5T448 952zM448 112Q285 112 170.5 227T56 504Q56 667 170.5 781.5T448 896Q610 896 725 781.5T840 504Q840 342 725 227T448 112zM420 714V560H252V448H420V294L672 504z"     id="icon29" /></svg>
